app/client/src/assets/icons/blueprintjs/16px/rotate-page.svg

<svg xmlns="http://www.w3.org/2000/svg" xml:space="preserve" viewBox="0 0 16 16"><path fill-rule="evenodd" d="M8 6H2c-.55 0-1 .45-1 1v8c0 .55.45 1 1 1h6c.55 0 1-.45 1-1V7c0-.55-.45-1-1-1zm-1 8H3V8h4v6zm5-12h-1.59l.29-.29c.19-.18.3-.43.3-.71A1.003 1.003 0 0 0 9.29.29l-2 2C7.11 2.47 7 2.72 7 3c0 .28.11.53.29.71l2 2a1.003 1.003 0 0 0 1.42-1.42l-.3-.29H12c.55 0 1 .45 1 1v3c0 .55.45 1 1 1s1-.45 1-1V5c0-1.66-1.34-3-3-3z" clip-rule="evenodd"/></svg>

<?xml version="1.0" encoding="utf-8"?>
<!-- Generator: Adobe Illustrator 18.1.0, SVG Export Plug-In . SVG Version: 6.00 Build 0)  -->
<svg version="1.1" id="Layer_1" xmlns="http://www.w3.org/2000/svg" xmlns:xlink="http://www.w3.org/1999/xlink" x="0px" y="0px"
	 viewBox="0 0 16 16" enable-background="new 0 0 16 16" xml:space="preserve">
<g id="rotate_page_1_">
	<g>
		<path fill-rule="evenodd" clip-rule="evenodd" d="M8,6H2C1.45,6,1,6.45,1,7v8c0,0.55,0.45,1,1,1h6c0.55,0,1-0.45,1-1V7
			C9,6.45,8.55,6,8,6z M7,14H3V8h4V14z M12,2h-1.59l0.29-0.29C10.89,1.53,11,1.28,11,1c0-0.55-0.45-1-1-1
			C9.72,0,9.47,0.11,9.29,0.29l-2,2C7.11,2.47,7,2.72,7,3c0,0.28,0.11,0.53,0.29,0.71l2,2C9.47,5.89,9.72,6,10,6c0.55,0,1-0.45,1-1
			c0-0.28-0.11-0.53-0.29-0.71L10.41,4H12c0.55,0,1,0.45,1,1v3c0,0.55,0.45,1,1,1s1-0.45,1-1V5C15,3.34,13.66,2,12,2z"/>
	</g>
</g>
</svg>
